svg/emoji_u1f685.svg

<?xml version="1.0" encoding="UTF-8"?>
<svg width="128" height="128" enable-background="new 0 0 128 128" xmlns="http://www.w3.org/2000/svg"><linearGradient id="a" x1="64" x2="64" y1="29.5" y2="108.01" gradientUnits="userSpaceOnUse"><stop stop-color="#fff" offset="0"/><stop stop-color="#BDBDBD" offset=".9908"/></linearGradient><path d="M123.95,28H75.53c-4.58,0-6.92,2.47-11.64,7.44c-0.64,0.66-3.59,3.74-4.19,4.55L47.69,54.52 l-0.05,0.06c-10.51,3.93-20.35,9.09-27.96,15.08C3.27,82.55-3.22,98,15.17,108h108.78V28z" fill="url(#a)"/><path d="M124,108H11.36c-1.4,1.37-15.48,16.25-0.95,16.25H124V108z" fill="#263238"/><g opacity=".2"><path d="m122 110v12.25h-111.59c-2.43 0-4.09-0.49-4.42-1.3-0.89-2.19 3.26-7.87 6.2-10.95h109.81m2-2h-112.64c-1.4 1.37-15.48 16.25-0.95 16.25h113.59v-16.25z" fill="#eee"/></g><path d="M124,68H89.42c-5.17,0-9.76,2.86-13.4,8l-9.61,12.61c-2.97,4.4,0.22,8,4.62,8H124V68z" fill="#0277BD"/><path d="M124,28H75.58c-4.58,0-6.92,2.47-11.64,7.44c-0.64,0.66-3.59,3.74-4.19,4.55L47.74,54.52l-0.05,0.06 c-10.51,3.93-20.35,9.09-27.96,15.08C3.32,82.55-3.17,98,15.22,108H124V28z" fill="none"/><g opacity=".2"><path d="m120.94 31.06v74h-105c-5.52-3.15-8.5-6.9-8.86-11.13-0.53-6.26 4.74-14.23 14.44-21.86 7.09-5.57 16.48-10.63 27.17-14.63l0.75-0.28 0.51-0.62 0.05-0.06 12-14.52 0.05-0.07 0.04-0.06c0.34-0.46 2.36-2.62 3.96-4.27l0.04-0.04c4.77-5.02 6.28-6.47 9.42-6.47h45.43m3-2.99h-48.42c-4.58 0-6.92 2.47-11.64 7.44-0.64 0.66-3.59 3.74-4.19 4.55l-12.01 14.53-0.05 0.06c-10.51 3.93-20.35 9.09-27.96 15.08-16.41 12.9-22.9 28.34-4.51 38.34h108.78v-80z" fill="#424242"/></g><path d="m96.41 53.89h-48.07c6.77-8.56 14.97-17.85 14.97-17.85h32.81c2.14 0 3.87 1.73 3.87 3.87v10.09c0.01 2.14-1.44 3.89-3.58 3.89z" fill="#4FC3F7"/><g opacity=".2"><path d="m64.67 39.04h31.45c0.48 0 0.87 0.39 0.87 0.87v10.09c0 0.15-0.03 0.89-0.59 0.89h-41.78c4.21-5.13 8.3-9.84 10.05-11.85m-1.36-3s-8.2 9.28-14.97 17.85h48.07c2.14 0 3.59-1.75 3.59-3.89v-10.09c0-2.14-1.73-3.87-3.87-3.87h-32.82z" fill="#424242"/></g><path d="m28.25 87.47c0 9.08-5.27 17.53-12.92 20.53h-0.11c-18.39-10-11.9-25.5 4.51-38.4 5.2 4.2 8.52 10.68 8.52 17.87z" fill="#0288D1"/><g opacity=".2"><path d="m19.62 73.93c3.6 3.69 5.63 8.6 5.63 13.79 0 7.41-4.06 14.51-9.82 17.44-5.15-3.09-7.94-6.73-8.29-10.85-0.26-3.15 0.86-6.67 3.33-10.45 2.16-3.29 5.23-6.62 9.15-9.93m0.11-3.7c-16.41 12.9-22.9 28.77-4.51 38.77h0.11c7.65-3 12.92-11.82 12.92-20.9 0-7.2-3.32-13.67-8.52-17.87z" fill="#424242"/></g></svg>

<svg width="128" height="128" style="enable-background:new 0 0 128 128;" xmlns="http://www.w3.org/2000/svg" xmlns:xlink="http://www.w3.org/1999/xlink">
  <linearGradient id="SVGID_1_" gradientUnits="userSpaceOnUse" x1="64" x2="64" y1="29.5" y2="108.0143">
    <stop offset="0" style="stop-color:#FFFFFF"/>
    <stop offset="0.9908" style="stop-color:#BDBDBD"/>
  </linearGradient>
  <path d="M123.95,28H75.53c-4.58,0-6.92,2.47-11.64,7.44c-0.64,0.66-3.59,3.74-4.19,4.55L47.69,54.52 l-0.05,0.06c-10.51,3.93-20.35,9.09-27.96,15.08C3.27,82.55-3.22,98,15.17,108h108.78V28z" style="fill:url(#SVGID_1_);"/>
  <path d="M124,108H11.36c-1.4,1.37-15.48,16.25-0.95,16.25H124V108z" style="fill:#263238;"/>
  <g style="opacity:0.2;">
    <path d="M122,110v12.25H10.41c-2.43,0-4.09-0.49-4.42-1.3c-0.89-2.19,3.26-7.87,6.2-10.95H122 M124,108 H11.36c-1.4,1.37-15.48,16.25-0.95,16.25H124V108L124,108z" style="fill:#EEEEEE;"/>
  </g>
  <path d="M124,68H89.42c-5.17,0-9.76,2.86-13.4,8l-9.61,12.61c-2.97,4.4,0.22,8,4.62,8H124V68z" style="fill:#0277BD;"/>
  <path d="M124,28H75.58c-4.58,0-6.92,2.47-11.64,7.44c-0.64,0.66-3.59,3.74-4.19,4.55L47.74,54.52l-0.05,0.06 c-10.51,3.93-20.35,9.09-27.96,15.08C3.32,82.55-3.17,98,15.22,108H124V28z" style="fill:none;"/>
  <g style="opacity:0.2;">
    <path d="M120.94,31.06v74h-105c-5.52-3.15-8.5-6.9-8.86-11.13c-0.53-6.26,4.74-14.23,14.44-21.86 C28.61,66.5,38,61.44,48.69,57.44l0.75-0.28l0.51-0.62l0.05-0.06L62,41.96l0.05-0.07l0.04-0.06c0.34-0.46,2.36-2.62,3.96-4.27 l0.04-0.04c4.77-5.02,6.28-6.47,9.42-6.47H120.94 M123.94,28.06H75.52c-4.58,0-6.92,2.47-11.64,7.44 c-0.64,0.66-3.59,3.74-4.19,4.55L47.68,54.58l-0.05,0.06c-10.51,3.93-20.35,9.09-27.96,15.08c-16.41,12.9-22.9,28.34-4.51,38.34 h108.78V28.06L123.94,28.06z" style="fill:#424242;"/>
  </g>
  <path d="M96.41,53.89H48.34c6.77-8.56,14.97-17.85,14.97-17.85l32.81,0c2.14,0,3.87,1.73,3.87,3.87V50 C100,52.14,98.55,53.89,96.41,53.89z" style="fill:#4FC3F7;"/>
  <g style="opacity:0.2;">
    <path d="M64.67,39.04l31.45,0c0.48,0,0.87,0.39,0.87,0.87V50c0,0.15-0.03,0.89-0.59,0.89H54.62 C58.83,45.76,62.92,41.05,64.67,39.04 M63.31,36.04c0,0-8.2,9.28-14.97,17.85h48.07c2.14,0,3.59-1.75,3.59-3.89V39.91 c0-2.14-1.73-3.87-3.87-3.87L63.31,36.04L63.31,36.04z" style="fill:#424242;"/>
  </g>
  <path d="M28.25,87.47c0,9.08-5.27,17.53-12.92,20.53h-0.11c-18.39-10-11.9-25.5,4.51-38.4 C24.93,73.8,28.25,80.28,28.25,87.47z" style="fill:#0288D1;"/>
  <g style="opacity:0.2;">
    <path d="M19.62,73.93c3.6,3.69,5.63,8.6,5.63,13.79c0,7.41-4.06,14.51-9.82,17.44 c-5.15-3.09-7.94-6.73-8.29-10.85C6.88,91.16,8,87.64,10.47,83.86C12.63,80.57,15.7,77.24,19.62,73.93 M19.73,70.23 C3.32,83.13-3.17,99,15.22,109h0.11c7.65-3,12.92-11.82,12.92-20.9C28.25,80.9,24.93,74.43,19.73,70.23L19.73,70.23z" style="fill:#424242;"/>
  </g>
</svg>
